icons/desktop/16/svg/lock-slash-16.svg

<svg width="16" height="16" viewBox="0 0 16 16" fill="none" xmlns="http://www.w3.org/2000/svg">
<path fill-rule="evenodd" clip-rule="evenodd" d="M0.219792 0.219727C0.512685 -0.0731667 0.987446 -0.0731667 1.28034 0.219727L8.57917 7.51758L8.57721 7.5166L15.7803 14.7197C16.0732 15.0126 16.0732 15.4874 15.7803 15.7803C15.4874 16.0732 15.0127 16.0732 14.7198 15.7803L13.5216 14.582C13.0887 15.2182 12.3972 15.6712 11.585 15.7744C10.3981 15.9244 9.19204 16 8.00007 16C6.79507 16 5.57881 15.9235 4.38581 15.7715C3.0249 15.5974 2.00007 14.4239 2.00007 13.042V8.95801C2.00007 7.71904 2.83612 6.65339 4.00007 6.31836V5.06055L0.219792 1.28027C-0.0731012 0.98738 -0.0731012 0.51262 0.219792 0.219727ZM6.48444 7.54492C5.8556 7.58028 5.22637 7.63519 4.60358 7.71387C3.97481 7.79307 3.50007 8.32916 3.50007 8.95801V13.042C3.50007 13.671 3.96226 14.2042 4.57526 14.2822C6.82519 14.5702 9.13762 14.5721 11.3966 14.2861C11.8721 14.2262 12.2584 13.9045 12.419 13.4795L6.48444 7.54492Z" fill="black"/>
<path d="M8.00007 0C10.2061 1.21506e-05 12.0001 1.79401 12.0001 4V6.31641C13.162 6.64245 14.0001 7.71105 14.0001 8.95801V11.1709L12.5001 9.6709V8.95801C12.5001 8.32901 12.0379 7.79577 11.4249 7.71777C11.104 7.67679 10.7781 7.65399 10.4542 7.625L8.8819 6.05273C9.4219 6.06873 9.96307 6.07605 10.5001 6.12305V4C10.5001 2.62201 9.37906 1.50001 8.00007 1.5C7.00811 1.5 6.15702 2.08489 5.753 2.92383L4.65241 1.82324C5.36741 0.728242 6.59807 0 8.00007 0Z" fill="black"/>
</svg>

<!-- This Source Code Form is subject to the terms of the Mozilla Public
   - License, v. 2.0. If a copy of the MPL was not distributed with this
   - file, You can obtain one at http://mozilla.org/MPL/2.0/. -->
<svg xmlns="http://www.w3.org/2000/svg" width="16" height="16" fill="context-fill" fill-opacity="context-fill-opacity" viewBox="0 0 16 16">
    <path fill-rule="evenodd" d="M.22.22a.75.75 0 0 1 1.06 0l7.3 7.298-.003-.001 7.203 7.203a.75.75 0 1 1-1.06 1.06l-1.198-1.198a2.76 2.76 0 0 1-1.937 1.192 28.7 28.7 0 0 1-7.2-.002A2.75 2.75 0 0 1 2 13.042V8.958c0-1.239.836-2.305 2-2.64V5.061L.22 1.28A.75.75 0 0 1 .22.22m6.264 7.325c-.628.035-1.258.09-1.88.169A1.26 1.26 0 0 0 3.5 8.958v4.084c0 .629.462 1.162 1.075 1.24 2.25.288 4.563.29 6.822.004.475-.06.861-.381 1.022-.806z" clip-rule="evenodd" />
    <path d="M8 0c2.206 0 4 1.794 4 4v2.316c1.162.326 2 1.395 2 2.642v2.213l-1.5-1.5v-.713c0-.629-.462-1.162-1.075-1.24-.321-.041-.647-.064-.97-.093L8.881 6.053c.54.016 1.081.023 1.618.07V4c0-1.378-1.12-2.5-2.5-2.5-.992 0-1.843.585-2.247 1.424l-1.1-1.1A4 4 0 0 1 8 0" />
</svg>
